X: 84
T:Hewitson's Hp. WI.084
M:C|
L:1/8
Q:180
C:"by S.W., Wigton, Cumberland"
S:Wm Irwin, Folio MS, c1850. AGG's Transcription
R:Hornpipe
O:England
A:Lake District
Z:vmp.Chris Partington.2005
K:F
((3cde)|gfcB ABcA|BcdB G2GF|EFGF CDEC|FGAB =Bcde|!
fcag fedc|dBba gfed|cfdB AFGE|[A,2F2][A,2F2][A,2F2]:|!
|:AB|{d}c=BcA Fafc|d^cdB Gbge|fcag fedc|BAGF ECDE|!
FEFE Fafc|dBba gfed|cfdB AFGE|[A,2F2][A,2F2][A,2F2]:|]
